X:1
T: The Intrigues of the Town
N:20 August 2000
C:
S:
A:
O:
R:
M:6/8
K:Em
I:speed 150
%W:  A1
% voice 1 (1 lines, 23 notes)
K:Em
M:6/8
L:1/16
B,2 |E3 F G2 A F3 G2 F4 E2 ^D6 E F G2 E2 F G A2 G2 F B,3 ^D2 E4 B,2 |
%W:  A2
% voice 1 (1 lines, 22 notes)
E3 F G2 A F3 G2 F4 E2 ^D6 E F G2 E2 F G A2 G2 F B,3 ^D2 E4 F2 |
%W:  B
% voice 1 (1 lines, 22 notes)
G3 A B2 B G3 B2 A F3 A2 G4 F2 G A B2 G2 B c d2 B2 G4 F2 G6 |
%W:
% voice 1 (1 lines, 21 notes)
B c d2 B2 d3 c B2 A F3 A2 G4 F2 G E3 G2 F4 E2 ^D2 E2 F2 B,6 |
%W:
% voice 1 (1 lines, 17 notes)
B, ^C D2 D2 E F G2 G2 F4 E2 d6 B3 A G2 A F3 G2
%W:
% voice 1 (1 lines, 13 notes)
F4 E2 e6 |d3 c B2 e B3 A G F4 E2 E4 ||
